static/cards/FrenchDeck/cyberwave/card_clubs_07.svg

<svg xmlns="http://www.w3.org/2000/svg" width="822" height="1122" fill="none" viewBox="0 0 822 1122"><rect width="822" height="1122" fill="#1a0033" rx="20"/><g fill="#fff066" clip-path="url(#a)"><path d="M101.998 159q-.896 0-.896-.768 0-.64.512-1.536l42.112-78.464H92.141q-2.943 0-2.943-2.816v-.896q0-1.408.64-1.92.768-.64 2.303-.64h57.857q2.816 0 2.816 2.56 0 .896-.64 2.176a36 36 0 0 1-1.28 2.56l-42.24 78.976q-.256.512-.64.64-.257.128-.896.128zM141.309 231.337v-.004c0-11.782-9.224-21.333-20.603-21.333s-20.603 9.551-20.603 21.333c-11.379 0-20.603 9.552-20.603 21.334S88.724 274 100.103 274c10.386 0 18.977-7.957 20.397-18.305C121.92 266.043 130.511 274 140.897 274c11.379 0 20.603-9.551 20.603-21.333 0-11.64-9.002-21.102-20.191-21.33"/><rect width="5" height="33" x="118.5" y="251" rx="2.5"/><path d="M712.002 959q.896 0 .896.768 0 .64-.512 1.536l-42.112 78.466h51.584c1.963 0 2.944.94 2.944 2.81v.9q0 1.41-.64 1.92c-.512.43-1.28.64-2.304.64h-57.856c-1.877 0-2.816-.85-2.816-2.56 0-.6.214-1.32.64-2.18.342-.76.768-1.62 1.28-2.56l42.24-78.972q.256-.512.64-.64.257-.128.896-.128zM672.691 886.663v.004c0 11.782 9.224 21.333 20.603 21.333s20.603-9.551 20.603-21.333c11.379 0 20.603-9.552 20.603-21.334S725.276 844 713.897 844c-10.386 0-18.977 7.957-20.397 18.305C692.08 851.957 683.489 844 673.103 844c-11.379 0-20.603 9.551-20.603 21.333 0 11.64 9.002 21.102 20.191 21.33"/><rect width="5" height="33" x="695.5" y="867" rx="2.5" transform="rotate(-180 695.5 867)"/></g><path stroke="#fff066" stroke-width="8" d="M411.779 520.935c13.001 0 23.889 11.163 23.889 25.377v3.923l3.918.081c12.786.265 23.414 11.333 23.414 25.372 0 14.214-10.889 25.377-23.89 25.377-11.873 0-21.966-9.289-23.646-21.741h-7.928c-1.68 12.452-11.773 21.741-23.646 21.741-13.001 0-23.89-11.163-23.89-25.377s10.889-25.376 23.89-25.376h4v-4c0-14.214 10.889-25.377 23.889-25.377Z"/><path fill="#fff066" d="M408.307 583.026a3.041 3.041 0 1 1 6.082 0v30.933a3.041 3.041 0 1 1-6.082 0z"/><path stroke="#fff066" stroke-width="8" d="M411.779 682.935c13.001 0 23.889 11.163 23.889 25.377v3.923l3.918.081c12.786.265 23.414 11.333 23.414 25.372 0 14.214-10.889 25.377-23.89 25.377-11.873 0-21.966-9.289-23.646-21.741h-7.928c-1.68 12.452-11.773 21.741-23.646 21.741-13.001 0-23.89-11.163-23.89-25.377s10.889-25.376 23.89-25.376h4v-4c0-14.214 10.889-25.377 23.889-25.377Z"/><path fill="#fff066" d="M408.307 745.026a3.041 3.041 0 1 1 6.082 0v30.933a3.041 3.041 0 1 1-6.082 0z"/><path stroke="#fff066" stroke-width="8" d="M579.779 520.935c13.001 0 23.889 11.163 23.889 25.377v3.923l3.918.081c12.786.265 23.414 11.333 23.414 25.372 0 14.214-10.889 25.377-23.89 25.377-11.873 0-21.966-9.289-23.646-21.741h-7.928c-1.68 12.452-11.773 21.741-23.646 21.741-13.001 0-23.89-11.163-23.89-25.377s10.889-25.376 23.89-25.376h4v-4c0-14.214 10.889-25.377 23.889-25.377Z"/><path fill="#fff066" d="M576.307 583.026a3.041 3.041 0 1 1 6.082 0v30.933a3.041 3.041 0 1 1-6.082 0z"/><path stroke="#fff066" stroke-width="8" d="M243.779 520.935c13.001 0 23.889 11.163 23.889 25.377v3.923l3.918.081c12.786.265 23.414 11.333 23.414 25.372 0 14.214-10.889 25.377-23.89 25.377-11.873 0-21.966-9.289-23.646-21.741h-7.928c-1.68 12.452-11.773 21.741-23.646 21.741-13.001 0-23.89-11.163-23.89-25.377s10.889-25.376 23.89-25.376h4v-4c0-14.214 10.889-25.377 23.889-25.377Z"/><path fill="#fff066" d="M240.307 583.026a3.041 3.041 0 1 1 6.082 0v30.933a3.041 3.041 0 1 1-6.082 0z"/><path stroke="#fff066" stroke-width="8" d="M579.779 358.935c13.001 0 23.889 11.163 23.889 25.377v3.923l3.918.081c12.786.265 23.414 11.333 23.414 25.372 0 14.214-10.889 25.377-23.89 25.377-11.873 0-21.966-9.289-23.646-21.741h-7.928c-1.68 12.452-11.773 21.741-23.646 21.741-13.001 0-23.89-11.163-23.89-25.377s10.889-25.376 23.89-25.376h4v-4c0-14.214 10.889-25.377 23.889-25.377Z"/><path fill="#fff066" d="M576.307 421.026a3.041 3.041 0 1 1 6.082 0v30.933a3.041 3.041 0 1 1-6.082 0z"/><path stroke="#fff066" stroke-width="8" d="M243.779 358.935c13.001 0 23.889 11.163 23.889 25.377v3.923l3.918.081c12.786.265 23.414 11.333 23.414 25.372 0 14.214-10.889 25.377-23.89 25.377-11.873 0-21.966-9.289-23.646-21.741h-7.928c-1.68 12.452-11.773 21.741-23.646 21.741-13.001 0-23.89-11.163-23.89-25.377s10.889-25.376 23.89-25.376h4v-4c0-14.214 10.889-25.377 23.889-25.377Z"/><path fill="#fff066" d="M240.307 421.026a3.041 3.041 0 1 1 6.082 0v30.933a3.041 3.041 0 1 1-6.082 0z"/><path stroke="#fff066" stroke-width="8" d="M411.779 358.935c13.001 0 23.889 11.163 23.889 25.377v3.923l3.918.081c12.786.265 23.414 11.333 23.414 25.372 0 14.214-10.889 25.377-23.89 25.377-11.873 0-21.966-9.289-23.646-21.741h-7.928c-1.68 12.452-11.773 21.741-23.646 21.741-13.001 0-23.89-11.163-23.89-25.377s10.889-25.376 23.89-25.376h4v-4c0-14.214 10.889-25.377 23.889-25.377Z"/><path fill="#fff066" d="M408.307 421.026a3.041 3.041 0 1 1 6.082 0v30.933a3.041 3.041 0 1 1-6.082 0z"/><defs><clipPath id="a"><path fill="#fff" d="M46 48h722v1022H46z"/></clipPath></defs></svg>

<svg width="822" height="1122" viewBox="0 0 822 1122" fill="none" xmlns="http://www.w3.org/2000/svg">
<rect width="822" height="1122" rx="20" fill="#1A0033"/>
<g clip-path="url(#clip0_31_1492)">
<path d="M101.998 159C101.4 159 101.102 158.744 101.102 158.232C101.102 157.805 101.272 157.293 101.614 156.696L143.726 78.232H92.1415C90.1788 78.232 89.1975 77.2933 89.1975 75.416V74.52C89.1975 73.5813 89.4108 72.9413 89.8375 72.6C90.3495 72.1733 91.1175 71.96 92.1415 71.96H149.998C151.875 71.96 152.814 72.8133 152.814 74.52C152.814 75.1173 152.6 75.8427 152.174 76.696C151.832 77.464 151.406 78.3173 150.894 79.256L108.654 158.232C108.483 158.573 108.27 158.787 108.014 158.872C107.843 158.957 107.544 159 107.118 159H101.998Z" fill="#FFF066"/>
<path d="M141.309 231.337C141.309 231.336 141.309 231.335 141.309 231.333C141.309 219.551 132.085 210 120.706 210C109.327 210 100.103 219.551 100.103 231.333C88.7243 231.333 79.5 240.885 79.5 252.667C79.5 264.449 88.7243 274 100.103 274C110.489 274 119.08 266.043 120.5 255.695C121.92 266.043 130.511 274 140.897 274C152.276 274 161.5 264.449 161.5 252.667C161.5 241.027 152.498 231.565 141.309 231.337Z" fill="#FFF066"/>
<rect x="118.5" y="251" width="5" height="33" rx="2.5" fill="#FFF066"/>
<path d="M712.002 959C712.6 959 712.898 959.256 712.898 959.768C712.898 960.195 712.728 960.707 712.386 961.304L670.274 1039.77H721.858C723.821 1039.77 724.802 1040.71 724.802 1042.58V1043.48C724.802 1044.42 724.589 1045.06 724.162 1045.4C723.65 1045.83 722.882 1046.04 721.858 1046.04H664.002C662.125 1046.04 661.186 1045.19 661.186 1043.48C661.186 1042.88 661.4 1042.16 661.826 1041.3C662.168 1040.54 662.594 1039.68 663.106 1038.74L705.346 959.768C705.517 959.427 705.73 959.213 705.986 959.128C706.157 959.043 706.456 959 706.882 959H712.002Z" fill="#FFF066"/>
<path d="M672.691 886.663C672.691 886.664 672.691 886.665 672.691 886.667C672.691 898.449 681.915 908 693.294 908C704.673 908 713.897 898.449 713.897 886.667C725.276 886.667 734.5 877.115 734.5 865.333C734.5 853.551 725.276 844 713.897 844C703.511 844 694.92 851.957 693.5 862.305C692.08 851.957 683.489 844 673.103 844C661.724 844 652.5 853.551 652.5 865.333C652.5 876.973 661.502 886.435 672.691 886.663Z" fill="#FFF066"/>
<rect x="695.5" y="867" width="5" height="33" rx="2.5" transform="rotate(-180 695.5 867)" fill="#FFF066"/>
</g>
<path d="M411.779 520.935C424.78 520.935 435.668 532.098 435.668 546.312V550.235L439.586 550.316C452.372 550.581 463 561.649 463 575.688C463 589.902 452.111 601.065 439.11 601.065C427.237 601.065 417.144 591.776 415.464 579.324H407.536C405.856 591.776 395.763 601.065 383.89 601.065C370.889 601.065 360 589.902 360 575.688C360 561.475 370.889 550.312 383.89 550.312H387.89V546.312C387.89 532.098 398.779 520.935 411.779 520.935Z" stroke="#FFF066" stroke-width="8"/>
<path d="M408.307 583.026C408.307 581.347 409.668 579.985 411.348 579.985C413.028 579.985 414.389 581.347 414.389 583.026V613.959C414.389 615.638 413.028 617 411.348 617C409.668 617 408.307 615.638 408.307 613.959V583.026Z" fill="#FFF066"/>
<path d="M411.779 682.935C424.78 682.935 435.668 694.098 435.668 708.312V712.235L439.586 712.316C452.372 712.581 463 723.649 463 737.688C463 751.902 452.111 763.065 439.11 763.065C427.237 763.065 417.144 753.776 415.464 741.324H407.536C405.856 753.776 395.763 763.065 383.89 763.065C370.889 763.065 360 751.902 360 737.688C360 723.475 370.889 712.312 383.89 712.312H387.89V708.312C387.89 694.098 398.779 682.935 411.779 682.935Z" stroke="#FFF066" stroke-width="8"/>
<path d="M408.307 745.026C408.307 743.347 409.668 741.985 411.348 741.985C413.028 741.985 414.389 743.347 414.389 745.026V775.959C414.389 777.638 413.028 779 411.348 779C409.668 779 408.307 777.638 408.307 775.959V745.026Z" fill="#FFF066"/>
<path d="M579.779 520.935C592.78 520.935 603.668 532.098 603.668 546.312V550.235L607.586 550.316C620.372 550.581 631 561.649 631 575.688C631 589.902 620.111 601.065 607.11 601.065C595.237 601.065 585.144 591.776 583.464 579.324H575.536C573.856 591.776 563.763 601.065 551.89 601.065C538.889 601.065 528 589.902 528 575.688C528 561.475 538.889 550.312 551.89 550.312H555.89V546.312C555.89 532.098 566.779 520.935 579.779 520.935Z" stroke="#FFF066" stroke-width="8"/>
<path d="M576.307 583.026C576.307 581.347 577.668 579.985 579.348 579.985C581.028 579.985 582.389 581.347 582.389 583.026V613.959C582.389 615.638 581.028 617 579.348 617C577.668 617 576.307 615.638 576.307 613.959V583.026Z" fill="#FFF066"/>
<path d="M243.779 520.935C256.78 520.935 267.668 532.098 267.668 546.312V550.235L271.586 550.316C284.372 550.581 295 561.649 295 575.688C295 589.902 284.111 601.065 271.11 601.065C259.237 601.065 249.144 591.776 247.464 579.324H239.536C237.856 591.776 227.763 601.065 215.89 601.065C202.889 601.065 192 589.902 192 575.688C192 561.475 202.889 550.312 215.89 550.312H219.89V546.312C219.89 532.098 230.779 520.935 243.779 520.935Z" stroke="#FFF066" stroke-width="8"/>
<path d="M240.307 583.026C240.307 581.347 241.668 579.985 243.348 579.985C245.028 579.985 246.389 581.347 246.389 583.026V613.959C246.389 615.638 245.028 617 243.348 617C241.668 617 240.307 615.638 240.307 613.959V583.026Z" fill="#FFF066"/>
<path d="M579.779 358.935C592.78 358.935 603.668 370.098 603.668 384.312V388.235L607.586 388.316C620.372 388.581 631 399.649 631 413.688C631 427.902 620.111 439.065 607.11 439.065C595.237 439.065 585.144 429.776 583.464 417.324H575.536C573.856 429.776 563.763 439.065 551.89 439.065C538.889 439.065 528 427.902 528 413.688C528 399.475 538.889 388.312 551.89 388.312H555.89V384.312C555.89 370.098 566.779 358.935 579.779 358.935Z" stroke="#FFF066" stroke-width="8"/>
<path d="M576.307 421.026C576.307 419.347 577.668 417.985 579.348 417.985C581.028 417.985 582.389 419.347 582.389 421.026V451.959C582.389 453.638 581.028 455 579.348 455C577.668 455 576.307 453.638 576.307 451.959V421.026Z" fill="#FFF066"/>
<path d="M243.779 358.935C256.78 358.935 267.668 370.098 267.668 384.312V388.235L271.586 388.316C284.372 388.581 295 399.649 295 413.688C295 427.902 284.111 439.065 271.11 439.065C259.237 439.065 249.144 429.776 247.464 417.324H239.536C237.856 429.776 227.763 439.065 215.89 439.065C202.889 439.065 192 427.902 192 413.688C192 399.475 202.889 388.312 215.89 388.312H219.89V384.312C219.89 370.098 230.779 358.935 243.779 358.935Z" stroke="#FFF066" stroke-width="8"/>
<path d="M240.307 421.026C240.307 419.347 241.668 417.985 243.348 417.985C245.028 417.985 246.389 419.347 246.389 421.026V451.959C246.389 453.638 245.028 455 243.348 455C241.668 455 240.307 453.638 240.307 451.959V421.026Z" fill="#FFF066"/>
<path d="M411.779 358.935C424.78 358.935 435.668 370.098 435.668 384.312V388.235L439.586 388.316C452.372 388.581 463 399.649 463 413.688C463 427.902 452.111 439.065 439.11 439.065C427.237 439.065 417.144 429.776 415.464 417.324H407.536C405.856 429.776 395.763 439.065 383.89 439.065C370.889 439.065 360 427.902 360 413.688C360 399.475 370.889 388.312 383.89 388.312H387.89V384.312C387.89 370.098 398.779 358.935 411.779 358.935Z" stroke="#FFF066" stroke-width="8"/>
<path d="M408.307 421.026C408.307 419.347 409.668 417.985 411.348 417.985C413.028 417.985 414.389 419.347 414.389 421.026V451.959C414.389 453.638 413.028 455 411.348 455C409.668 455 408.307 453.638 408.307 451.959V421.026Z" fill="#FFF066"/>
<defs>
<clipPath id="clip0_31_1492">
<rect width="722" height="1022" fill="white" transform="translate(46 48)"/>
</clipPath>
</defs>
</svg>
